Numix-Circle/48x48/apps/gnome-photos.svg

<?xml version="1.0" encoding="UTF-8" standalone="no"?>
<svg
   xmlns:dc="http://purl.org/dc/elements/1.1/"
   xmlns:cc="http://creativecommons.org/ns#"
   xmlns:rdf="http://www.w3.org/1999/02/22-rdf-syntax-ns#"
   xmlns:svg="http://www.w3.org/2000/svg"
   xmlns="http://www.w3.org/2000/svg"
   xmlns:xlink="http://www.w3.org/1999/xlink"
   xmlns:sodipodi="http://sodipodi.sourceforge.net/DTD/sodipodi-0.dtd"
   xmlns:inkscape="http://www.inkscape.org/namespaces/inkscape"
   width="48"
   viewBox="0 0 13.546667 13.546667"
   height="48"
   id="svg2"
   version="1.1"
   inkscape:version="0.91 r13725"
   sodipodi:docname="gnome-photos.svg">
  <metadata
     id="metadata331">
    <rdf:RDF>
      <cc:Work
         rdf:about="">
        <dc:format>image/svg+xml</dc:format>
        <dc:type
           rdf:resource="http://purl.org/dc/dcmitype/StillImage" />
        <dc:title />
      </cc:Work>
    </rdf:RDF>
  </metadata>
  <sodipodi:namedview
     pagecolor="#ffffff"
     bordercolor="#666666"
     borderopacity="1"
     objecttolerance="10"
     gridtolerance="10"
     guidetolerance="10"
     inkscape:pageopacity="0"
     inkscape:pageshadow="2"
     inkscape:window-width="1920"
     inkscape:window-height="1023"
     id="namedview329"
     showgrid="true"
     inkscape:zoom="12.071371"
     inkscape:cx="18.671483"
     inkscape:cy="21.623636"
     inkscape:window-x="0"
     inkscape:window-y="28"
     inkscape:window-maximized="1"
     inkscape:current-layer="layer3"
     showguides="true"
     inkscape:guide-bbox="true">
    <inkscape:grid
       type="xygrid"
       id="grid3308" />
  </sodipodi:namedview>
  <defs
     id="defs4">
    <linearGradient
       id="linearGradient4912">
      <stop
         style="stop-color:#addd3f;stop-opacity:1;"
         offset="0"
         id="stop4914" />
      <stop
         style="stop-color:#b6e744;stop-opacity:1;"
         offset="1"
         id="stop4916" />
    </linearGradient>
    <linearGradient
       inkscape:collect="always"
       xlink:href="#linearGradient4912"
       id="linearGradient4918"
       x1="-25.499998"
       y1="15"
       x2="-25.499998"
       y2="11"
       gradientUnits="userSpaceOnUse" />
  </defs>
  <g
     inkscape:groupmode="layer"
     id="layer1"
     inkscape:label="Shadow"
     sodipodi:insensitive="true">
    <path
       style="opacity:0.05;fill:#000000;fill-opacity:1;stroke:none"
       d="M 25,2 C 12.297451,2 2,12.297451 2,25 2,31.367153 4.6007106,37.116628 8.78125,41.28125 12.865755,44.99361 18.29568,47.25 24.25,47.25 c 12.702549,0 23,-10.297451 23,-23 0,-5.95432 -2.25639,-11.384245 -5.96875,-15.46875 C 37.116628,4.6007105 31.367153,2 25,2 z M 41.28125,8.78125 C 45.135604,12.894061 47.5,18.418655 47.5,24.5 c 0,12.702549 -10.297451,23 -23,23 C 18.418655,47.5 12.894061,45.135604 8.78125,41.28125 12.940939,45.4251 18.664604,48 25,48 37.702549,48 48,37.702549 48,25 48,18.664604 45.4251,12.940939 41.28125,8.78125 z"
       transform="scale(0.28222223,0.28222223)"
       id="path3978"
       inkscape:connector-curvature="0" />
    <path
       style="opacity:0.1;fill:#000000;fill-opacity:1;stroke:none"
       d="M 41.28125,8.78125 C 44.99361,12.865755 47.25,18.29568 47.25,24.25 c 0,12.702549 -10.297451,23 -23,23 -5.95432,0 -11.384245,-2.25639 -15.46875,-5.96875 C 12.894061,45.135604 18.418655,47.5 24.5,47.5 c 12.702549,0 23,-10.297451 23,-23 0,-6.081345 -2.364396,-11.605939 -6.21875,-15.71875 z"
       transform="scale(0.28222223,0.28222223)"
       id="path3976"
       inkscape:connector-curvature="0" />
    <path
       transform="matrix(4.3274074,0,0,3.2455556,117.19278,-35.348334)"
       d="m -24,13 a 1.5,2 0 1 1 -3,0 1.5,2 0 1 1 3,0 z"
       sodipodi:ry="2"
       sodipodi:rx="1.5"
       sodipodi:cy="13"
       sodipodi:cx="-25.5"
       id="path3952"
       style="opacity:0.2;fill:#000000;fill-opacity:1;stroke:none"
       sodipodi:type="arc" />
  </g>
  <g
     inkscape:groupmode="layer"
     id="layer2"
     inkscape:label="Base">
    <path
       sodipodi:type="arc"
       style="opacity:1;fill:url(#linearGradient4918);fill-opacity:1;stroke:none"
       id="path3942"
       sodipodi:cx="-25.5"
       sodipodi:cy="13"
       sodipodi:rx="1.5"
       sodipodi:ry="2"
       d="m -24,13 a 1.5,2 0 1 1 -3,0 1.5,2 0 1 1 3,0 z"
       transform="matrix(4.3274075,0,0,3.2455556,117.12222,-35.418889)" />
    <path
       style="opacity:0.1;fill:#000000;fill-opacity:1;stroke:none"
       d="M 40.03125 7.53125 C 43.74361 11.615755 46 17.04568 46 23 C 46 35.702549 35.702549 46 23 46 C 17.04568 46 11.615755 43.74361 7.53125 40.03125 C 11.709416 44.322508 17.537578 47 24 47 C 36.702549 47 47 36.702549 47 24 C 47 17.537578 44.322508 11.709416 40.03125 7.53125 z "
       id="path4027"
       transform="scale(0.28222223,0.28222223)" />
  </g>
  <g
     inkscape:groupmode="layer"
     id="layer3"
     inkscape:label="Symbol">
    <path
       id="path4920"
       d="m 3.3866667,9.4701237 c 0,0.3794322 0.2986477,0.6898763 0.6670708,0.6898763 h 2.6682828 1.3341414 2.0012123 c 0.368557,0 0.667071,-0.3104441 0.667071,-0.6898763 V 4.6409878 c 0,-0.3794322 -0.298514,-0.6898765 -0.667071,-0.6898765 H 8.0561617 6.7220203 5.3878789 4.0537375 c -0.3684232,0 -0.6670708,0.3104443 -0.6670708,0.6898765 v 1.379753 3.4493829 z"
       inkscape:connector-curvature="0"
       style="fill:#000000;fill-opacity:1;opacity:0.1" />
    <path
       style="fill:#e9e6cd;fill-opacity:1"
       inkscape:connector-curvature="0"
       d="m 3.1044445,9.1879014 c 0,0.3794322 0.2986476,0.6898766 0.6670708,0.6898766 h 2.6682828 1.3341414 2.001212 c 0.3685575,0 0.6670715,-0.3104444 0.6670715,-0.6898766 V 4.3587656 c 0,-0.3794322 -0.298514,-0.6898766 -0.6670715,-0.6898766 H 7.7739395 6.4397981 5.1056567 3.7715153 c -0.3684232,0 -0.6670708,0.3104444 -0.6670708,0.6898766 v 1.379753 3.4493828 z"
       id="path4883" />
    <rect
       style="fill:#65bbdd;fill-opacity:1"
       height="5.0799999"
       width="6.208889"
       x="3.668889"
       y="4.2333336"
       id="rect4885" />
    <path
       style="fill:#43a63b;fill-opacity:1"
       inkscape:connector-curvature="0"
       d="m 8.4666669,6.208889 -3.3073623,3.1044446 4.7184734,0 0,-1.6933334 z"
       id="path4887"
       sodipodi:nodetypes="ccccc" />
    <path
       style="fill:#f1cf0f;fill-opacity:1"
       inkscape:connector-curvature="0"
       d="m 6.4911113,5.6444445 a 0.9877778,0.9877778 0 0 1 -1.9755556,0 0.9877778,0.9877778 0 1 1 1.9755556,0 z"
       id="path4889" />
    <path
       style="fill:#269542;fill-opacity:1"
       inkscape:connector-curvature="0"
       d="m 5.9266668,5.9266668 -2.2577778,2.5930579 0,0.7936089 4.7977779,0 z"
       id="path4891"
       sodipodi:nodetypes="ccccc" />
  </g>
</svg>

<svg xmlns="http://www.w3.org/2000/svg" width="48" viewBox="0 0 13.546667 13.546667" height="48"><defs><linearGradient id="linearGradient4918" y1="15" x2="0" y2="11" gradientUnits="userSpaceOnUse"><stop stop-color="#addd3f" stop-opacity="1"/><stop offset="1" stop-color="#b6e744" stop-opacity="1"/></linearGradient></defs><g><path d="m 25 2 c -12.703 0 -23 10.297 -23 23 0 6.367 2.601 12.12 6.781 16.281 4.085 3.712 9.514 5.969 15.469 5.969 c 12.703 0 23 -10.297 23 -23 0 -5.954 -2.256 -11.384 -5.969 -15.469 c -4.165 -4.181 -9.914 -6.781 -16.281 -6.781 z m 16.281 6.781 c 3.854 4.113 6.219 9.637 6.219 15.719 c 0 12.703 -10.297 23 -23 23 c -6.081 0 -11.606 -2.364 -15.719 -6.219 4.16 4.144 9.883 6.719 16.219 6.719 12.703 0 23 -10.297 23 -23 0 -6.335 -2.575 -12.06 -6.719 -16.219 z" transform="scale(0.28222223,0.28222223)" opacity="0.05" fill="#000" stroke="none" fill-opacity="1"/><path d="m 41.28 8.781 c 3.712 4.085 5.969 9.514 5.969 15.469 c 0 12.703 -10.297 23 -23 23 -5.954 0 -11.384 -2.256 -15.469 -5.969 c 4.113 3.854 9.637 6.219 15.719 6.219 c 12.703 0 23 -10.297 23 -23 0 -6.081 -2.364 -11.606 -6.219 -15.719 z" transform="scale(0.28222223,0.28222223)" opacity="0.1" fill="#000" stroke="none" fill-opacity="1"/><path transform="matrix(4.3274074,0,0,3.2455556,117.19278,-35.348334)" d="m -24 13 a 1.5 2 0 1 1 -3 0 1.5 2 0 1 1 3 0 z" opacity="0.2" fill="#000" stroke="none" fill-opacity="1"/></g><g><path d="m -24 13 a 1.5 2 0 1 1 -3 0 1.5 2 0 1 1 3 0 z" transform="matrix(4.3274075,0,0,3.2455556,117.12222,-35.418889)" opacity="1" fill="url(#linearGradient4918)" stroke="none" fill-opacity="1"/><path d="m 40.03 7.531 c 3.712 4.085 5.969 9.514 5.969 15.469 c 0 12.703 -10.297 23 -23 23 c -5.954 0 -11.384 -2.256 -15.469 -5.969 c 4.178 4.291 10.01 6.969 16.469 6.969 c 12.703 0 23 -10.297 23 -23 c 0 -6.462 -2.677 -12.291 -6.969 -16.469 z" transform="scale(0.28222223,0.28222223)" opacity="0.1" fill="#000" stroke="none" fill-opacity="1"/></g><g><path d="m 3.387 9.47 c 0 0.379 0.299 0.69 0.667 0.69 2 0 4 0 6 0 0.369 0 0.667 -0.31 0.667 -0.69 l 0 -4.829 c 0 -0.379 -0.299 -0.69 -0.667 -0.69 -2 0 -4 0 -6 0 -0.368 0 -0.667 0.31 -0.667 0.69 0 1.61 0 3.219 0 4.829 z" opacity="0.1" fill="#000" fill-opacity="1"/><path d="m 3.104 9.188 c 0 0.379 0.299 0.69 0.667 0.69 2 0 4 0 6 0 0.369 0 0.667 -0.31 0.667 -0.69 l 0 -4.829 c 0 -0.379 -0.299 -0.69 -0.667 -0.69 -2 0 -4 0 -6 0 -0.368 0 -0.667 0.31 -0.667 0.69 0 1.61 0 3.219 0 4.829 z" fill="#e9e6cd" fill-opacity="1"/><rect height="5.08" width="6.209" x="3.669" y="4.233" fill="#65bbdd" fill-opacity="1"/><path d="m 8.467 6.209 -3.307 3.104 4.718 0 0 -1.693 z" fill="#43a63b" fill-opacity="1"/><path d="m 6.491 5.644 a 0.988 0.988 0 0 1 -1.976 0 0.988 0.988 0 1 1 1.976 0 z" fill="#f1cf0f" fill-opacity="1"/><path d="m 5.927 5.927 -2.258 2.593 0 0.794 4.798 0 z" fill="#269542" fill-opacity="1"/></g></svg>
